X: 004
T: What's that to You
B: 204 Favourite Country Dances
N: Published by Straight & Skillern, London ca.1775
F: http://imslp.org/wiki/204_Favourite_Country_Dances_(Various) p.2 #4
Z: 2014 John Chambers <jc:trillian.mit.edu>
M: C
L: 1/8
K: F
%  - - - - - - - - - - - - - - - - - - - - - - - - -
   c2 |\
f/g/a gf gedc | d/e/f ed cAGF |\
BdcB Acef | dbgf fe :|
|: g2 |\
e/f/g gf fedc | fcfg ac'ac |\
d/e/f ed cAGF | d>ef2 f2 :|
%  - - - - - - - - - - - - - - - - - - - - - - - - -
%%begintext align
%% Foot it 4 & right & left half round the
%% same back again cross over & half figure
%% right & left
%%endtext

%%sep 1 1 500
%%sep 1 1 500
